X:1
T:GREEN GROW THE RUSHES O -- REEL
B:Ryan's Mammoth Collection of Fiddle Tunes
R:reel
Z:Contributed 20001206170529 by John Chambers John.Chambers:weema.com
Z:Contributed by Ray Davies,  ray:davies99.freeserve.co.uk
M:2/4
L:1/16
%%slurgraces 1
K:G
v.G2(GA) BGGB | ABcd ecAB | .c2(ec) .B2(dB) | AcBA (GE).E2 |
GFGA BGGB | ABcd ecAB | cedc BdcB | AcBA (GE)E2 |]
g2{a}ge (fd).d.f | ebba beef | {a}gfge .d2(dB) | AcBA (GE).E2 |
{a}gfge fddf | efga beef | ((3gba) ((3gfe) .d2(dB) | AcBA (GE).E2 |]
